raw-svg/share-alt.svg

<svg viewBox="0 0 24 24" xmlns="http://www.w3.org/2000/svg"><path d="m17.5 14.25a3.24 3.24 0 0 0 -2.62 1.35l-5.29-2.6a3.39 3.39 0 0 0 .16-1 3.39 3.39 0 0 0 -.16-1l5.29-2.6a3.23 3.23 0 1 0 -.63-1.9 2.94 2.94 0 0 0 .05.5l-5.47 2.75a3.19 3.19 0 0 0 -2.33-1 3.25 3.25 0 0 0 0 6.5 3.19 3.19 0 0 0 2.33-1l5.47 2.75a2.94 2.94 0 0 0 -.05.51 3.25 3.25 0 1 0 3.25-3.25zm0-9.5a1.75 1.75 0 1 1 -1.75 1.75 1.76 1.76 0 0 1 1.75-1.75zm-11 9a1.75 1.75 0 1 1 1.75-1.75 1.76 1.76 0 0 1 -1.75 1.75zm11 5.5a1.75 1.75 0 1 1 1.75-1.75 1.76 1.76 0 0 1 -1.75 1.75z"/></svg>

<svg xmlns="http://www.w3.org/2000/svg" viewBox="0 0 24 24"><g id="share-alt"><path d="M17.5,14.25a3.24,3.24,0,0,0-2.62,1.35L9.59,13a3.39,3.39,0,0,0,.16-1,3.39,3.39,0,0,0-.16-1L14.88,8.4a3.23,3.23,0,1,0-.63-1.9A2.94,2.94,0,0,0,14.3,7L8.83,9.75a3.19,3.19,0,0,0-2.33-1,3.25,3.25,0,0,0,0,6.5,3.19,3.19,0,0,0,2.33-1L14.3,17a2.94,2.94,0,0,0-.05.51,3.25,3.25,0,1,0,3.25-3.25Zm0-9.5A1.75,1.75,0,1,1,15.75,6.5,1.76,1.76,0,0,1,17.5,4.75Zm-11,9A1.75,1.75,0,1,1,8.25,12,1.76,1.76,0,0,1,6.5,13.75Zm11,5.5a1.75,1.75,0,1,1,1.75-1.75A1.76,1.76,0,0,1,17.5,19.25Z"/></g></svg>
